X: 1
T: Rickett's Hornpipe
T: Manchester Hornpipe
R: Hornpipe, reel
O: England
O: Ireland
M: 4/4
K: D
(3ABc|: "D"dcdA FAdf | "A7"edcB A2g2 | "D"fgaf "G (Em)"gfed | "E"edcB "A"A2(3ABc | 
"D"dcdA FAdf | "A"edcB A2g2 | "D"fgaf "A"bgec |1"D"d2f2 d2 (3ABc:|2"D"d2f2 d2 f-g||
|:  "D"afaf "(Bm)"d2ga | "G"bgbg "(Em)"e2fg | "D"afba "G"gfed | "E"edcB "A"A2 (3ABc | 
"D"dcdA FAdf | "A"edcB A2g2 | "D"fgaf "A"bgec |1"D"d2f2 d2 f-g :|2"D"d2f2d2|]
